templates/default_lut.cube
TITLE "Generate by Resolve"
LUT_3D_SIZE 33
0.000000 0.000000 0.000000
0.000000 0.000000 0.000000
0.003922 0.000000 0.000000
0.019608 0.000000 0.000000
0.035294 0.000000 0.000000
0.054902 0.000000 0.000000
0.078431 0.003922 0.000000
0.105882 0.007843 0.000000
0.133333 0.007843 0.000000
0.164706 0.015686 0.000000
0.196078 0.019608 0.000000
0.231373 0.027451 0.000000
0.270588 0.043137 0.000000
0.305882 0.058824 0.000000
0.349020 0.066667 0.015686
0.392157 0.078431 0.023529
0.431373 0.078431 0.027451
0.470588 0.078431 0.039216
0.509804 0.078431 0.043137
0.541176 0.074510 0.050980
0.576471 0.066667 0.054902
0.600000 0.062745 0.062745
0.623529 0.054902 0.066667
0.643137 0.050980 0.066667
0.662745 0.047059 0.070588
0.674510 0.035294 0.074510
0.686275 0.027451 0.078431
0.698039 0.023529 0.078431
0.701961 0.019608 0.078431
0.709804 0.007843 0.082353
0.717647 0.000000 0.078431
0.717647 0.000000 0.066667
0.721569 0.000000 0.058824
0.000000 0.000000 0.000000
0.000000 0.000000 0.000000
0.003922 0.000000 0.000000
0.019608 0.000000 0.000000
0.035294 0.000000 0.000000
0.054902 0.000000 0.000000
0.078431 0.003922 0.000000
0.105882 0.007843 0.000000
0.133333 0.011765 0.000000
0.164706 0.015686 0.000000
0.196078 0.019608 0.000000
0.231373 0.031373 0.000000
0.270588 0.047059 0.000000
0.305882 0.058824 0.000000
0.349020 0.070588 0.011765
0.392157 0.078431 0.023529
0.435294 0.082353 0.027451
0.474510 0.082353 0.039216
0.513726 0.078431 0.043137
0.545098 0.078431 0.050980
0.576471 0.070588 0.054902
0.600000 0.066667 0.062745
0.623529 0.062745 0.066667
0.643137 0.054902 0.066667
0.662745 0.050980 0.070588
0.674510 0.039216 0.074510
0.686275 0.035294 0.078431
0.694118 0.031373 0.078431
0.705882 0.023529 0.074510
0.709804 0.011765 0.070588
0.717647 0.000000 0.074510
0.721569 0.000000 0.058824
0.725490 0.000000 0.050980
0.000000 0.000000 0.000000
0.000000 0.000000 0.000000
0.003922 0.000000 0.000000
0.019608 0.000000 0.000000
0.035294 0.000000 0.000000
0.054902 0.000000 0.000000
0.078431 0.007843 0.000000
0.105882 0.011765 0.000000
0.133333 0.015686 0.000000
0.168627 0.023529 0.000000
0.200000 0.027451 0.000000
0.235294 0.039216 0.000000
0.274510 0.050980 0.000000
0.309804 0.066667 0.000000
0.352941 0.078431 0.007843
0.396078 0.086275 0.019608
0.439216 0.090196 0.027451
0.478431 0.094118 0.035294
0.517647 0.094118 0.043137
0.549020 0.090196 0.050980
0.584314 0.086275 0.054902
0.607843 0.086275 0.058824
0.631373 0.082353 0.066667
0.650980 0.074510 0.066667
0.666667 0.070588 0.070588
0.682353 0.062745 0.070588
0.694118 0.058824 0.074510
0.701961 0.050980 0.070588
0.709804 0.039216 0.058824
0.717647 0.027451 0.050980
0.721569 0.011765 0.047059
0.729412 0.000000 0.027451
0.729412 0.000000 0.015686
0.000000 0.000000 0.000000
0.000000 0.000000 0.000000
0.007843 0.000000 0.000000
0.023529 0.003922 0.000000
0.039216 0.011765 0.000000
0.058824 0.011765 0.000000
0.082353 0.015686 0.000000
0.109804 0.019608 0.000000
0.137255 0.027451 0.000000
0.172549 0.031373 0.000000
0.203922 0.039216 0.000000
0.239216 0.050980 0.000000
0.278431 0.062745 0.000000
0.317647 0.074510 0.000000
0.360784 0.086275 0.000000
0.403922 0.090196 0.007843
0.447059 0.098039 0.019608
0.486275 0.101961 0.031373
0.525490 0.109804 0.039216
0.560784 0.109804 0.050980
0.592157 0.109804 0.054902
0.615686 0.109804 0.058824
0.639216 0.105882 0.066667
0.658824 0.098039 0.066667
0.674510 0.098039 0.066667
0.690196 0.090196 0.062745
0.701961 0.086275 0.054902
0.709804 0.074510 0.047059
0.717647 0.062745 0.035294
0.721569 0.047059 0.023529
0.729412 0.035294 0.011765
0.733333 0.019608 0.000000
0.741176 0.000000 0.000000
0.000000 0.011765 0.000000
0.000000 0.011765 0.000000
0.007843 0.015686 0.000000
0.023529 0.015686 0.000000
0.043137 0.019608 0.000000
0.062745 0.023529 0.000000
0.090196 0.031373 0.000000
0.113725 0.035294 0.000000
0.145098 0.039216 0.000000
0.176471 0.047059 0.000000
0.207843 0.054902 0.000000
0.247059 0.066667 0.000000
0.286275 0.078431 0.000000
0.325490 0.086275 0.000000
0.368627 0.090196 0.000000
0.411765 0.090196 0.000000
0.454902 0.098039 0.003922
0.494118 0.109804 0.019608
0.537255 0.121569 0.035294
0.572549 0.129412 0.050980
0.603922 0.129412 0.054902
0.627451 0.129412 0.062745
0.650980 0.129412 0.066667
0.670588 0.125490 0.062745
0.686275 0.121569 0.058824
0.701961 0.117647 0.039216
0.713726 0.105882 0.027451
0.721569 0.098039 0.011765
0.729412 0.078431 0.003922
0.733333 0.070588 0.000000
0.741176 0.058824 0.000000
0.745098 0.039216 0.000000
0.749020 0.019608 0.000000
0.000000 0.023529 0.000000
0.000000 0.023529 0.000000
0.007843 0.023529 0.000000
0.027451 0.027451 0.000000
0.047059 0.035294 0.000000
0.070588 0.039216 0.000000
0.098039 0.043137 0.000000
0.125490 0.054902 0.000000
0.152941 0.058824 0.000000
0.180392 0.062745 0.000000
0.215686 0.074510 0.000000
0.250980 0.082353 0.000000
0.290196 0.094118 0.000000
0.333333 0.101961 0.000000
0.376471 0.098039 0.000000
0.423529 0.094118 0.000000
0.462745 0.101961 0.000000
0.505882 0.121569 0.003922
0.545098 0.137255 0.027451
0.584314 0.149020 0.043137
0.615686 0.152941 0.050980
0.643137 0.152941 0.054902
0.662745 0.152941 0.058824
0.682353 0.149020 0.054902
0.701961 0.145098 0.039216
0.717647 0.137255 0.019608
0.725490 0.129412 0.003922
0.737255 0.113725 0.000000
0.741176 0.101961 0.000000
0.749020 0.094118 0.000000
0.752941 0.078431 0.000000
0.756863 0.062745 0.000000
0.760784 0.047059 0.000000
0.000000 0.043137 0.003922
0.000000 0.043137 0.003922
0.011765 0.047059 0.000000
0.027451 0.047059 0.000000
0.050980 0.054902 0.000000
0.074510 0.058824 0.000000
0.101961 0.066667 0.000000
0.129412 0.070588 0.000000
0.160784 0.082353 0.000000
0.192157 0.086275 0.000000
0.223529 0.094118 0.000000
0.258824 0.105882 0.000000
0.298039 0.109804 0.000000
0.341176 0.117647 0.000000
0.388235 0.121569 0.000000
0.435294 0.125490 0.000000
0.478431 0.133333 0.000000
0.521569 0.145098 0.000000
0.556863 0.160784 0.003922
0.600000 0.168627 0.027451
0.631373 0.172549 0.043137
0.658824 0.176471 0.047059
0.678431 0.180392 0.047059
0.701961 0.176471 0.035294
0.717647 0.168627 0.015686
0.729412 0.160784 0.003922
0.741176 0.145098 0.000000
0.752941 0.137255 0.000000
0.760784 0.125490 0.000000
0.764706 0.117647 0.000000
0.768628 0.105882 0.000000
0.772549 0.094118 0.000000
0.776471 0.082353 0.000000
0.000000 0.066667 0.007843
0.000000 0.066667 0.003922
0.007843 0.070588 0.003922
0.027451 0.070588 0.003922
0.050980 0.074510 0.000000
0.078431 0.082353 0.000000
0.105882 0.086275 0.000000
0.133333 0.094118 0.000000
0.164706 0.101961 0.000000
0.196078 0.109804 0.000000
0.231373 0.117647 0.000000
0.270588 0.125490 0.000000
0.309804 0.133333 0.000000
0.352941 0.141176 0.000000
0.400000 0.149020 0.000000
0.447059 0.156863 0.000000
0.490196 0.168627 0.000000
0.533333 0.172549 0.000000
0.576471 0.184314 0.000000
0.611765 0.192157 0.007843
0.647059 0.200000 0.023529
0.674510 0.203922 0.031373
0.698039 0.203922 0.031373
0.717647 0.196078 0.015686
0.733333 0.192157 0.000000
0.749020 0.184314 0.000000
0.760784 0.172549 0.000000
0.772549 0.164706 0.000000
0.776471 0.152941 0.000000
0.784314 0.145098 0.000000
0.788235 0.137255 0.000000
0.792157 0.133333 0.000000
0.792157 0.117647 0.000000
0.000000 0.094118 0.015686
0.000000 0.094118 0.015686
0.003922 0.094118 0.011765
0.027451 0.098039 0.007843
0.054902 0.101961 0.003922
0.082353 0.105882 0.000000
0.113725 0.113725 0.000000
0.145098 0.121569 0.000000
0.172549 0.125490 0.000000
0.203922 0.133333 0.000000
0.239216 0.145098 0.000000
0.278431 0.152941 0.000000
0.321569 0.160784 0.000000
0.364706 0.172549 0.000000
0.411765 0.176471 0.000000
0.458824 0.184314 0.000000
0.501961 0.192157 0.000000
0.545098 0.196078 0.000000
0.592157 0.203922 0.000000
0.631373 0.211765 0.000000
0.662745 0.223529 0.000000
0.694118 0.227451 0.007843
0.713726 0.227451 0.007843
0.733333 0.227451 0.000000
0.752941 0.219608 0.000000
0.768628 0.215686 0.000000
0.780392 0.207843 0.000000
0.788235 0.203922 0.000000
0.796079 0.196078 0.000000
0.803922 0.192157 0.000000
0.803922 0.188235 0.000000
0.811765 0.180392 0.000000
0.811765 0.168627 0.000000
0.000000 0.129412 0.035294
0.000000 0.125490 0.031373
0.000000 0.125490 0.027451
0.019608 0.125490 0.015686
0.050980 0.129412 0.011765
0.082353 0.133333 0.003922
0.113725 0.137255 0.000000
0.149020 0.149020 0.000000
0.180392 0.152941 0.000000
0.215686 0.160784 0.000000
0.247059 0.168627 0.000000
0.286275 0.184314 0.000000
0.329412 0.192157 0.000000
0.376471 0.200000 0.000000
0.423529 0.207843 0.000000
0.474510 0.211765 0.000000
0.521569 0.211765 0.000000
0.564706 0.215686 0.000000
0.607843 0.223529 0.000000
0.647059 0.235294 0.000000
0.682353 0.243137 0.000000
0.709804 0.250980 0.000000
0.733333 0.250980 0.000000
0.756863 0.250980 0.000000
0.776471 0.250980 0.000000
0.788235 0.247059 0.000000
0.800000 0.247059 0.000000
0.807843 0.243137 0.000000
0.819608 0.243137 0.000000
0.827451 0.239216 0.000000
0.827451 0.235294 0.000000
0.835294 0.231373 0.000000
0.839216 0.223529 0.000000
0.000000 0.160784 0.066667
0.000000 0.160784 0.062745
0.003922 0.160784 0.047059
0.015686 0.160784 0.035294
0.043137 0.160784 0.023529
0.078431 0.164706 0.011765
0.113725 0.168627 0.000000
0.149020 0.176471 0.000000
0.184314 0.184314 0.000000
0.219608 0.196078 0.000000
0.258824 0.203922 0.000000
0.301961 0.215686 0.000000
0.345098 0.223529 0.000000
0.388235 0.231373 0.000000
0.435294 0.235294 0.000000
0.486275 0.239216 0.000000
0.537255 0.247059 0.000000
0.580392 0.247059 0.000000
0.627451 0.250980 0.000000
0.666667 0.258824 0.000000
0.701961 0.266667 0.000000
0.729412 0.274510 0.000000
0.756863 0.274510 0.000000
0.776471 0.274510 0.000000
0.796079 0.278431 0.000000
0.807843 0.278431 0.000000
0.819608 0.278431 0.000000
0.835294 0.278431 0.000000
0.843137 0.274510 0.000000
0.847059 0.274510 0.000000
0.850980 0.274510 0.000000
0.858824 0.270588 0.000000
0.858824 0.266667 0.000000
0.000000 0.196078 0.094118
0.003922 0.196078 0.090196
0.015686 0.196078 0.078431
0.011765 0.192157 0.054902
0.031373 0.192157 0.035294
0.070588 0.196078 0.023529
0.109804 0.203922 0.007843
0.149020 0.207843 0.000000
0.188235 0.215686 0.000000
0.227451 0.227451 0.000000
0.266667 0.235294 0.000000
0.309804 0.247059 0.000000
0.356863 0.254902 0.000000
0.403922 0.262745 0.000000
0.454902 0.274510 0.000000
0.505882 0.278431 0.000000
0.552941 0.286275 0.000000
0.600000 0.286275 0.000000
0.647059 0.290196 0.000000
0.690196 0.294118 0.000000
0.721569 0.298039 0.000000
0.752941 0.298039 0.000000
0.776471 0.301961 0.000000
0.800000 0.301961 0.000000
0.819608 0.301961 0.000000
0.835294 0.301961 0.000000
0.847059 0.301961 0.000000
0.858824 0.301961 0.000000
0.866667 0.301961 0.000000
0.870588 0.298039 0.000000
0.874510 0.298039 0.000000
0.878431 0.298039 0.000000
0.882353 0.298039 0.000000
0.000000 0.231373 0.121569
0.007843 0.227451 0.117647
0.015686 0.227451 0.105882
0.015686 0.227451 0.086275
0.027451 0.227451 0.058824
0.058824 0.231373 0.035294
0.105882 0.235294 0.015686
0.149020 0.243137 0.000000
0.192157 0.247059 0.000000
0.235294 0.258824 0.007843
0.274510 0.270588 0.019608
0.321569 0.282353 0.015686
0.368627 0.290196 0.003922
0.415686 0.298039 0.000000
0.470588 0.313726 0.000000
0.521569 0.321569 0.000000
0.572549 0.329412 0.000000
0.623529 0.329412 0.000000
0.666667 0.329412 0.000000
0.709804 0.333333 0.000000
0.745098 0.337255 0.000000
0.772549 0.341176 0.000000
0.796079 0.345098 0.000000
0.823529 0.345098 0.000000
0.843137 0.345098 0.000000
0.858824 0.345098 0.000000
0.870588 0.341176 0.000000
0.878431 0.341176 0.000000
0.894118 0.337255 0.000000
0.898039 0.337255 0.000000
0.901961 0.337255 0.000000
0.905882 0.337255 0.000000
0.909804 0.337255 0.000000
0.000000 0.266667 0.141176
0.000000 0.262745 0.141176
0.011765 0.262745 0.133333
0.015686 0.262745 0.113725
0.019608 0.262745 0.090196
0.050980 0.266667 0.058824
0.098039 0.270588 0.031373
0.149020 0.274510 0.007843
0.192157 0.286275 0.000000
0.235294 0.294118 0.019608
0.282353 0.305882 0.035294
0.333333 0.317647 0.035294
0.380392 0.333333 0.023529
0.435294 0.341176 0.007843
0.486275 0.352941 0.000000
0.537255 0.364706 0.000000
0.592157 0.372549 0.000000
0.639216 0.372549 0.000000
0.690196 0.376471 0.000000
0.733333 0.384314 0.000000
0.768628 0.392157 0.000000
0.796079 0.396078 0.000000
0.823529 0.400000 0.000000
0.847059 0.400000 0.000000
0.866667 0.400000 0.000000
0.886275 0.396078 0.000000
0.898039 0.388235 0.000000
0.905882 0.384314 0.000000
0.913726 0.384314 0.000000
0.921569 0.384314 0.000000
0.925490 0.384314 0.000000
0.929412 0.384314 0.000000
0.933333 0.384314 0.000000
0.000000 0.301961 0.160784
0.000000 0.298039 0.160784
0.003922 0.294118 0.156863
0.007843 0.294118 0.137255
0.011765 0.294118 0.121569
0.043137 0.298039 0.094118
0.094118 0.305882 0.058824
0.145098 0.309804 0.019608
0.188235 0.321569 0.000000
0.235294 0.333333 0.019608
0.286275 0.345098 0.047059
0.337255 0.360784 0.058824
0.388235 0.372549 0.050980
0.443137 0.384314 0.031373
0.501961 0.400000 0.003922
0.556863 0.407843 0.000000
0.611765 0.415686 0.000000
0.662745 0.415686 0.000000
0.709804 0.423529 0.000000
0.752941 0.439216 0.000000
0.792157 0.447059 0.000000
0.823529 0.450980 0.000000
0.847059 0.454902 0.000000
0.874510 0.454902 0.000000
0.894118 0.450980 0.000000
0.905882 0.447059 0.000000
0.917647 0.443137 0.000000
0.929412 0.439216 0.000000
0.937255 0.439216 0.000000
0.949020 0.439216 0.000000
0.952941 0.439216 0.000000
0.956863 0.439216 0.000000
0.960784 0.439216 0.000000
0.000000 0.329412 0.180392
0.000000 0.325490 0.180392
0.000000 0.329412 0.176471
0.000000 0.329412 0.164706
0.003922 0.329412 0.145098
0.035294 0.337255 0.129412
0.094118 0.341176 0.098039
0.141176 0.349020 0.043137
0.184314 0.356863 0.007843
0.235294 0.368627 0.023529
0.286275 0.384314 0.054902
0.341176 0.400000 0.082353
0.396078 0.411765 0.078431
0.454902 0.427451 0.054902
0.513726 0.439216 0.023529
0.568627 0.454902 0.000000
0.627451 0.462745 0.000000
0.678431 0.466667 0.000000
0.729412 0.474510 0.000000
0.776471 0.486275 0.000000
0.811765 0.494118 0.000000
0.847059 0.501961 0.000000
0.870588 0.501961 0.000000
0.894118 0.498039 0.000000
0.913726 0.498039 0.000000
0.933333 0.498039 0.000000
0.945098 0.494118 0.000000
0.956863 0.494118 0.000000
0.964706 0.494118 0.000000
0.968628 0.494118 0.000000
0.972549 0.494118 0.000000
0.976471 0.494118 0.000000
0.980392 0.494118 0.000000
0.000000 0.360784 0.200000
0.000000 0.356863 0.196078
0.000000 0.360784 0.192157
0.000000 0.360784 0.184314
0.000000 0.364706 0.164706
0.023529 0.368627 0.149020
0.082353 0.376471 0.125490
0.133333 0.384314 0.062745
0.176471 0.392157 0.019608
0.231373 0.403922 0.019608
0.286275 0.419608 0.058824
0.349020 0.435294 0.090196
0.403922 0.450980 0.098039
0.462745 0.470588 0.078431
0.521569 0.482353 0.043137
0.584314 0.498039 0.007843
0.643137 0.509804 0.000000
0.698039 0.517647 0.000000
0.749020 0.525490 0.000000
0.796079 0.533333 0.000000
0.835294 0.541176 0.000000
0.866667 0.541176 0.000000
0.890196 0.541176 0.000000
0.913726 0.541176 0.000000
0.933333 0.541176 0.000000
0.949020 0.545098 0.000000
0.960784 0.545098 0.000000
0.972549 0.545098 0.000000
0.984314 0.545098 0.000000
0.988235 0.545098 0.000000
0.996078 0.545098 0.000000
1.000000 0.545098 0.000000
1.000000 0.545098 0.000000
0.000000 0.392157 0.215686
0.000000 0.388235 0.211765
0.000000 0.388235 0.211765
0.000000 0.392157 0.200000
0.000000 0.396078 0.180392
0.011765 0.400000 0.168627
0.062745 0.407843 0.149020
0.117647 0.419608 0.086275
0.160784 0.427451 0.031373
0.215686 0.439216 0.015686
0.286275 0.454902 0.050980
0.345098 0.474510 0.086275
0.407843 0.490196 0.105882
0.466667 0.505882 0.094118
0.529412 0.525490 0.058824
0.596078 0.541176 0.019608
0.658824 0.552941 0.000000
0.717647 0.568627 0.000000
0.768628 0.576471 0.000000
0.815686 0.588235 0.000000
0.854902 0.592157 0.000000
0.886275 0.592157 0.000000
0.909804 0.592157 0.000000
0.929412 0.592157 0.000000
0.952941 0.596078 0.000000
0.968628 0.600000 0.000000
0.980392 0.603922 0.000000
0.988235 0.603922 0.000000
0.996078 0.603922 0.000000
1.000000 0.607843 0.000000
1.000000 0.607843 0.000000
1.000000 0.603922 0.000000
1.000000 0.603922 0.000000
0.000000 0.415686 0.223529
0.000000 0.411765 0.223529
0.000000 0.411765 0.223529
0.000000 0.415686 0.215686
0.000000 0.419608 0.196078
0.003922 0.427451 0.180392
0.043137 0.435294 0.160784
0.090196 0.447059 0.109804
0.145098 0.458824 0.047059
0.203922 0.470588 0.015686
0.274510 0.486275 0.027451
0.341176 0.505882 0.062745
0.407843 0.529412 0.086275
0.470588 0.545098 0.098039
0.537255 0.564706 0.078431
0.607843 0.584314 0.043137
0.670588 0.603922 0.015686
0.729412 0.615686 0.003922
0.784314 0.627451 0.000000
0.831373 0.635294 0.000000
0.874510 0.643137 0.000000
0.901961 0.643137 0.000000
0.929412 0.643137 0.000000
0.949020 0.647059 0.000000
0.968628 0.650980 0.000000
0.980392 0.654902 0.000000
0.992157 0.658824 0.000000
1.000000 0.662745 0.000000
1.000000 0.662745 0.000000
1.000000 0.662745 0.000000
1.000000 0.662745 0.000000
1.000000 0.662745 0.000000
1.000000 0.658824 0.000000
0.000000 0.439216 0.235294
0.000000 0.435294 0.235294
0.000000 0.435294 0.235294
0.000000 0.435294 0.227451
0.000000 0.443137 0.211765
0.000000 0.450980 0.192157
0.019608 0.462745 0.176471
0.066667 0.474510 0.141176
0.125490 0.486275 0.082353
0.192157 0.501961 0.031373
0.262745 0.521569 0.015686
0.333333 0.537255 0.027451
0.403922 0.556863 0.062745
0.474510 0.580392 0.098039
0.541176 0.600000 0.101961
0.611765 0.623529 0.082353
0.678431 0.643137 0.047059
0.737255 0.654902 0.015686
0.796079 0.674510 0.000000
0.847059 0.682353 0.000000
0.882353 0.690196 0.000000
0.917647 0.694118 0.000000
0.941177 0.694118 0.000000
0.964706 0.698039 0.000000
0.984314 0.701961 0.000000
1.000000 0.701961 0.000000
1.000000 0.705882 0.000000
1.000000 0.705882 0.000000
1.000000 0.705882 0.000000
1.000000 0.709804 0.000000
1.000000 0.709804 0.000000
1.000000 0.705882 0.000000
1.000000 0.701961 0.000000
0.000000 0.450980 0.243137
0.000000 0.447059 0.239216
0.000000 0.447059 0.239216
0.000000 0.450980 0.235294
0.000000 0.458824 0.223529
0.000000 0.470588 0.207843
0.003922 0.482353 0.196078
0.043137 0.494118 0.172549
0.117647 0.509804 0.137255
0.196078 0.525490 0.086275
0.262745 0.541176 0.043137
0.325490 0.560784 0.027451
0.400000 0.584314 0.054902
0.470588 0.611765 0.098039
0.545098 0.635294 0.121569
0.611765 0.654902 0.109804
0.682353 0.674510 0.074510
0.749020 0.694118 0.035294
0.803922 0.705882 0.007843
0.854902 0.717647 0.000000
0.894118 0.725490 0.000000
0.925490 0.729412 0.003922
0.952941 0.733333 0.003922
0.976471 0.733333 0.003922
0.996078 0.737255 0.003922
1.000000 0.737255 0.003922
1.000000 0.737255 0.003922
1.000000 0.741176 0.003922
1.000000 0.741176 0.003922
1.000000 0.741176 0.003922
1.000000 0.741176 0.003922
1.000000 0.741176 0.003922
1.000000 0.737255 0.003922
0.000000 0.458824 0.250980
0.000000 0.458824 0.247059
0.000000 0.458824 0.243137
0.000000 0.462745 0.243137
0.000000 0.470588 0.239216
0.007843 0.482353 0.227451
0.003922 0.494118 0.215686
0.027451 0.509804 0.200000
0.109804 0.525490 0.180392
0.196078 0.541176 0.141176
0.266667 0.560784 0.090196
0.329412 0.584314 0.058824
0.396078 0.607843 0.066667
0.470588 0.631373 0.101961
0.541176 0.654902 0.129412
0.611765 0.678431 0.125490
0.682353 0.698039 0.094118
0.752941 0.717647 0.047059
0.811765 0.733333 0.011765
0.858824 0.745098 0.003922
0.901961 0.752941 0.003922
0.933333 0.756863 0.003922
0.964706 0.764706 0.003922
0.984314 0.768628 0.003922
1.000000 0.768628 0.003922
1.000000 0.772549 0.003922
1.000000 0.772549 0.003922
1.000000 0.772549 0.003922
1.000000 0.772549 0.003922
1.000000 0.772549 0.003922
1.000000 0.772549 0.003922
1.000000 0.772549 0.003922
1.000000 0.768628 0.003922
0.000000 0.466667 0.250980
0.000000 0.466667 0.250980
0.000000 0.466667 0.250980
0.000000 0.470588 0.250980
0.011765 0.482353 0.254902
0.023529 0.490196 0.247059
0.015686 0.501961 0.227451
0.019608 0.521569 0.211765
0.094118 0.537255 0.196078
0.192157 0.552941 0.176471
0.266667 0.576471 0.141176
0.329412 0.600000 0.109804
0.396078 0.623529 0.101961
0.466667 0.650980 0.121569
0.541176 0.674510 0.137255
0.611765 0.698039 0.129412
0.682353 0.721569 0.101961
0.752941 0.741176 0.054902
0.811765 0.756863 0.019608
0.866667 0.768628 0.003922
0.905882 0.776471 0.003922
0.941177 0.780392 0.003922
0.968628 0.784314 0.003922
0.988235 0.788235 0.003922
1.000000 0.792157 0.003922
1.000000 0.792157 0.003922
1.000000 0.792157 0.003922
1.000000 0.792157 0.003922
1.000000 0.792157 0.003922
1.000000 0.792157 0.003922
1.000000 0.792157 0.003922
1.000000 0.792157 0.003922
1.000000 0.792157 0.003922
0.000000 0.474510 0.254902
0.000000 0.470588 0.254902
0.000000 0.470588 0.254902
0.000000 0.478431 0.254902
0.011765 0.486275 0.258824
0.035294 0.498039 0.254902
0.023529 0.509804 0.239216
0.015686 0.529412 0.215686
0.082353 0.545098 0.203922
0.176471 0.564706 0.188235
0.258824 0.588235 0.168627
0.325490 0.611765 0.149020
0.392157 0.635294 0.133333
0.466667 0.662745 0.137255
0.537255 0.686275 0.137255
0.607843 0.709804 0.137255
0.678431 0.737255 0.105882
0.752941 0.756863 0.062745
0.811765 0.776471 0.019608
0.870588 0.788235 0.003922
0.909804 0.796079 0.003922
0.945098 0.800000 0.003922
0.972549 0.803922 0.003922
0.992157 0.807843 0.003922
1.000000 0.807843 0.003922
1.000000 0.811765 0.003922
1.000000 0.815686 0.003922
1.000000 0.815686 0.003922
1.000000 0.815686 0.003922
1.000000 0.815686 0.003922
1.000000 0.811765 0.003922
1.000000 0.811765 0.003922
1.000000 0.811765 0.003922
0.000000 0.478431 0.254902
0.000000 0.478431 0.254902
0.000000 0.478431 0.254902
0.000000 0.482353 0.258824
0.007843 0.490196 0.258824
0.039216 0.501961 0.258824
0.035294 0.513726 0.243137
0.015686 0.533333 0.223529
0.070588 0.549020 0.203922
0.160784 0.572549 0.192157
0.247059 0.592157 0.176471
0.317647 0.619608 0.152941
0.388235 0.643137 0.145098
0.458824 0.670588 0.141176
0.533333 0.694118 0.141176
0.603922 0.725490 0.133333
0.678431 0.749020 0.109804
0.749020 0.768628 0.066667
0.811765 0.784314 0.027451
0.870588 0.800000 0.003922
0.909804 0.807843 0.003922
0.949020 0.811765 0.003922
0.972549 0.819608 0.003922
0.996078 0.819608 0.003922
1.000000 0.823529 0.003922
1.000000 0.823529 0.003922
1.000000 0.827451 0.003922
1.000000 0.827451 0.003922
1.000000 0.827451 0.003922
1.000000 0.827451 0.003922
1.000000 0.827451 0.003922
1.000000 0.827451 0.003922
1.000000 0.827451 0.003922
0.000000 0.482353 0.254902
0.000000 0.482353 0.254902
0.000000 0.482353 0.254902
0.000000 0.482353 0.258824
0.003922 0.490196 0.258824
0.035294 0.501961 0.262745
0.039216 0.513726 0.247059
0.019608 0.533333 0.227451
0.058824 0.552941 0.203922
0.149020 0.572549 0.188235
0.235294 0.596078 0.172549
0.305882 0.619608 0.149020
0.380392 0.647059 0.137255
0.450980 0.674510 0.129412
0.525490 0.701961 0.129412
0.600000 0.729412 0.125490
0.674510 0.752941 0.113725
0.745098 0.772549 0.078431
0.807843 0.796079 0.031373
0.866667 0.807843 0.011765
0.913726 0.815686 0.003922
0.949020 0.823529 0.003922
0.976471 0.827451 0.003922
1.000000 0.831373 0.003922
1.000000 0.831373 0.003922
1.000000 0.835294 0.003922
1.000000 0.835294 0.003922
1.000000 0.835294 0.003922
1.000000 0.835294 0.003922
1.000000 0.839216 0.003922
1.000000 0.839216 0.003922
1.000000 0.839216 0.003922
1.000000 0.839216 0.003922
0.000000 0.486275 0.258824
0.000000 0.486275 0.258824
0.000000 0.482353 0.258824
0.000000 0.486275 0.258824
0.003922 0.494118 0.258824
0.031373 0.501961 0.262745
0.043137 0.517647 0.250980
0.023529 0.537255 0.227451
0.047059 0.552941 0.207843
0.129412 0.572549 0.188235
0.219608 0.596078 0.172549
0.298039 0.619608 0.145098
0.368627 0.647059 0.125490
0.443137 0.674510 0.121569
0.517647 0.701961 0.121569
0.592157 0.733333 0.121569
0.666667 0.756863 0.113725
0.741176 0.776471 0.086275
0.803922 0.800000 0.043137
0.862745 0.811765 0.015686
0.913726 0.823529 0.003922
0.949020 0.827451 0.003922
0.976471 0.835294 0.003922
1.000000 0.835294 0.003922
1.000000 0.839216 0.003922
1.000000 0.839216 0.003922
1.000000 0.839216 0.003922
1.000000 0.843137 0.003922
1.000000 0.843137 0.003922
