templates/default_lut.cube
TITLE "Generate by Resolve"
LUT_3D_SIZE 5
0.000000 0.000000 0.000000
0.133333 0.007843 0.000000
0.431373 0.078431 0.027451
0.662745 0.047059 0.070588
0.721569 0.000000 0.058824
0.000000 0.094118 0.015686
0.172549 0.125490 0.000000
0.501961 0.192157 0.000000
0.752941 0.219608 0.000000
0.811765 0.168627 0.000000
0.000000 0.360784 0.200000
0.176471 0.392157 0.019608
0.643137 0.509804 0.000000
0.933333 0.541176 0.000000
1.000000 0.545098 0.000000
0.000000 0.478431 0.254902
0.070588 0.549020 0.203922
0.678431 0.749020 0.109804
1.000000 0.823529 0.003922
1.000000 0.827451 0.003922
0.000000 0.490196 0.258824
0.015686 0.545098 0.227451
0.619608 0.752941 0.098039
1.000000 0.854902 0.003922
1.000000 0.858824 0.003922
0.000000 0.000000 0.094118
0.129412 0.003922 0.121569
0.435294 0.019608 0.141176
0.666667 0.031373 0.176471
0.729412 0.000000 0.180392
0.000000 0.098039 0.188235
0.156863 0.141176 0.149020
0.505882 0.176471 0.070588
0.756863 0.180392 0.074510
0.819608 0.164706 0.015686
0.066667 0.427451 0.345098
0.101961 0.435294 0.231373
0.635294 0.541176 0.086275
0.941177 0.592157 0.078431
1.000000 0.588235 0.000000
0.000000 0.556863 0.360784
0.000000 0.588235 0.305882
0.643137 0.792157 0.105882
1.000000 0.890196 0.176471
1.000000 0.898039 0.015686
0.000000 0.552941 0.337255
0.000000 0.576471 0.309804
0.556863 0.784314 0.129412
1.000000 0.913726 0.011765
1.000000 0.929412 0.007843
0.000000 0.035294 0.286275
0.062745 0.066667 0.325490
0.419608 0.094118 0.423529
0.670588 0.000000 0.486275
0.729412 0.000000 0.494118
0.000000 0.129412 0.368627
0.082353 0.133333 0.419608
0.498039 0.200000 0.505882
0.764706 0.160784 0.537255
0.835294 0.023529 0.541176
0.000000 0.403922 0.650980
0.125490 0.447059 0.639216
0.607843 0.572549 0.615686
0.933333 0.623529 0.631373
1.000000 0.635294 0.631373
0.039216 0.713726 0.760784
0.188235 0.721569 0.709804
0.513726 0.874510 0.647059
0.992157 0.968628 0.662745
1.000000 0.984314 0.666667
0.003922 0.713726 0.725490
0.035294 0.705882 0.674510
0.337255 0.866667 0.627451
0.980392 1.000000 0.615686
1.000000 1.000000 0.654902
0.000000 0.054902 0.384314
0.015686 0.054902 0.439216
0.415686 0.000000 0.584314
0.639216 0.066667 0.631373
0.713726 0.000000 0.658824
0.000000 0.133333 0.482353
0.011765 0.152941 0.588235
0.486275 0.031373 0.721569
0.749020 0.219608 0.749020
0.827451 0.007843 0.772549
0.000000 0.349020 0.729412
0.101961 0.458824 0.819608
0.603922 0.572549 0.894118
0.925490 0.615686 0.925490
1.000000 0.623529 0.933333
0.070588 0.768628 0.913726
0.333333 0.823529 0.933333
0.803922 0.929412 0.984314
0.992157 0.980392 0.992157
1.000000 0.996078 0.996078
0.192157 0.898039 0.941177
0.035294 0.839216 0.894118
0.345098 0.929412 0.937255
0.952941 1.000000 0.992157
1.000000 1.000000 1.000000
0.000000 0.054902 0.403922
0.039216 0.054902 0.462745
0.423529 0.000000 0.611765
0.639216 0.011765 0.662745
0.705882 0.000000 0.682353
0.000000 0.129412 0.494118
0.003922 0.113725 0.623529
0.505882 0.000000 0.760784
0.752941 0.125490 0.788235
0.827451 0.000000 0.807843
0.000000 0.329412 0.725490
0.101961 0.458824 0.850980
0.635294 0.556863 0.941177
0.929412 0.607843 0.968628
1.000000 0.619608 0.976471
0.062745 0.709804 0.901961
0.576471 0.823529 0.968628
0.850980 0.933333 1.000000
1.000000 0.984314 1.000000
1.000000 1.000000 1.000000
0.211765 0.898039 0.945098
0.333333 0.917647 0.952941
0.862745 1.000000 1.000000
1.000000 1.000000 1.000000
1.000000 1.000000 1.000000
