templates/default_lut.cube
TITLE "Generate by Resolve"
LUT_3D_SIZE 9
0.000000 0.000000 0.000000
0.035294 0.000000 0.000000
0.133333 0.007843 0.000000
0.270588 0.043137 0.000000
0.431373 0.078431 0.027451
0.576471 0.066667 0.054902
0.662745 0.047059 0.070588
0.701961 0.019608 0.078431
0.721569 0.000000 0.058824
0.000000 0.011765 0.000000
0.043137 0.019608 0.000000
0.145098 0.039216 0.000000
0.286275 0.078431 0.000000
0.454902 0.098039 0.003922
0.603922 0.129412 0.054902
0.686275 0.121569 0.058824
0.729412 0.078431 0.003922
0.749020 0.019608 0.000000
0.000000 0.094118 0.015686
0.054902 0.101961 0.003922
0.172549 0.125490 0.000000
0.321569 0.160784 0.000000
0.501961 0.192157 0.000000
0.662745 0.223529 0.000000
0.752941 0.219608 0.000000
0.796079 0.196078 0.000000
0.811765 0.168627 0.000000
0.000000 0.231373 0.121569
0.027451 0.227451 0.058824
0.192157 0.247059 0.000000
0.368627 0.290196 0.003922
0.572549 0.329412 0.000000
0.745098 0.337255 0.000000
0.843137 0.345098 0.000000
0.894118 0.337255 0.000000
0.909804 0.337255 0.000000
0.000000 0.360784 0.200000
0.000000 0.364706 0.164706
0.176471 0.392157 0.019608
0.403922 0.450980 0.098039
0.643137 0.509804 0.000000
0.835294 0.541176 0.000000
0.933333 0.541176 0.000000
0.984314 0.545098 0.000000
1.000000 0.545098 0.000000
0.000000 0.450980 0.243137
0.000000 0.458824 0.223529
0.117647 0.509804 0.137255
0.400000 0.584314 0.054902
0.682353 0.674510 0.074510
0.894118 0.725490 0.000000
0.996078 0.737255 0.003922
1.000000 0.741176 0.003922
1.000000 0.737255 0.003922
0.000000 0.478431 0.254902
0.007843 0.490196 0.258824
0.070588 0.549020 0.203922
0.388235 0.643137 0.145098
0.678431 0.749020 0.109804
0.909804 0.807843 0.003922
1.000000 0.823529 0.003922
1.000000 0.827451 0.003922
1.000000 0.827451 0.003922
0.000000 0.490196 0.258824
0.000000 0.494118 0.262745
0.027451 0.552941 0.211765
0.349020 0.643137 0.121569
0.654902 0.760784 0.109804
0.909804 0.831373 0.011765
1.000000 0.847059 0.003922
1.000000 0.850980 0.003922
1.000000 0.850980 0.003922
0.000000 0.490196 0.258824
0.000000 0.494118 0.262745
0.015686 0.545098 0.227451
0.305882 0.635294 0.121569
0.619608 0.752941 0.098039
0.890196 0.835294 0.023529
1.000000 0.854902 0.003922
1.000000 0.858824 0.003922
1.000000 0.858824 0.003922
0.000000 0.000000 0.007843
0.027451 0.000000 0.015686
0.133333 0.011765 0.011765
0.270588 0.011765 0.000000
0.435294 0.070588 0.050980
0.576471 0.070588 0.082353
0.662745 0.047059 0.094118
0.705882 0.019608 0.105882
0.725490 0.000000 0.086275
0.000000 0.011765 0.023529
0.039216 0.027451 0.023529
0.141176 0.043137 0.011765
0.286275 0.058824 0.000000
0.454902 0.094118 0.015686
0.603922 0.129412 0.086275
0.686275 0.121569 0.090196
0.733333 0.078431 0.023529
0.752941 0.011765 0.000000
0.000000 0.117647 0.078431
0.035294 0.109804 0.043137
0.168627 0.129412 0.023529
0.321569 0.160784 0.000000
0.501961 0.196078 0.000000
0.662745 0.223529 0.023529
0.756863 0.223529 0.000000
0.800000 0.196078 0.000000
0.815686 0.168627 0.000000
0.000000 0.247059 0.152941
0.003922 0.239216 0.105882
0.176471 0.254902 0.043137
0.364706 0.294118 0.000000
0.572549 0.329412 0.000000
0.749020 0.345098 0.000000
0.847059 0.352941 0.000000
0.894118 0.345098 0.000000
0.913726 0.345098 0.000000
0.000000 0.380392 0.219608
0.027451 0.376471 0.211765
0.149020 0.403922 0.086275
0.392157 0.458824 0.062745
0.643137 0.521569 0.035294
0.839216 0.560784 0.000000
0.937255 0.556863 0.000000
0.984314 0.560784 0.000000
1.000000 0.560784 0.000000
0.000000 0.466667 0.258824
0.000000 0.470588 0.254902
0.066667 0.517647 0.168627
0.384314 0.596078 0.062745
0.674510 0.690196 0.121569
0.898039 0.741176 0.007843
0.996078 0.756863 0.003922
1.000000 0.760784 0.003922
1.000000 0.760784 0.003922
0.000000 0.494118 0.266667
0.000000 0.494118 0.266667
0.039216 0.552941 0.215686
0.360784 0.650980 0.152941
0.670588 0.760784 0.152941
0.909804 0.827451 0.027451
1.000000 0.843137 0.003922
1.000000 0.850980 0.003922
1.000000 0.850980 0.003922
0.000000 0.501961 0.270588
0.000000 0.498039 0.266667
0.011765 0.552941 0.227451
0.317647 0.647059 0.129412
0.639216 0.768628 0.129412
0.905882 0.843137 0.019608
1.000000 0.862745 0.003922
1.000000 0.870588 0.007843
1.000000 0.874510 0.007843
0.000000 0.498039 0.266667
0.000000 0.498039 0.266667
0.011765 0.541176 0.239216
0.270588 0.635294 0.137255
0.603922 0.756863 0.113725
0.886275 0.843137 0.007843
1.000000 0.866667 0.003922
1.000000 0.874510 0.007843
1.000000 0.878431 0.007843
0.000000 0.000000 0.094118
0.000000 0.000000 0.113725
0.129412 0.003922 0.121569
0.270588 0.000000 0.121569
0.435294 0.019608 0.141176
0.580392 0.062745 0.172549
0.666667 0.031373 0.176471
0.709804 0.000000 0.188235
0.729412 0.000000 0.180392
0.000000 0.019608 0.113725
0.019608 0.043137 0.109804
0.137255 0.043137 0.129412
0.286275 0.054902 0.129412
0.458824 0.047059 0.113725
0.607843 0.117647 0.176471
0.694118 0.121569 0.184314
0.737255 0.074510 0.164706
0.760784 0.007843 0.145098
0.000000 0.098039 0.188235
0.015686 0.121569 0.160784
0.156863 0.141176 0.149020
0.321569 0.168627 0.141176
0.505882 0.176471 0.070588
0.666667 0.168627 0.054902
0.756863 0.180392 0.074510
0.803922 0.192157 0.039216
0.819608 0.164706 0.015686
0.039216 0.274510 0.286275
0.074510 0.270588 0.243137
0.141176 0.274510 0.176471
0.360784 0.305882 0.149020
0.572549 0.341176 0.070588
0.749020 0.356863 0.007843
0.850980 0.364706 0.000000
0.901961 0.360784 0.000000
0.917647 0.360784 0.000000
0.066667 0.427451 0.345098
0.058824 0.411765 0.301961
0.101961 0.435294 0.231373
0.364706 0.482353 0.149020
0.635294 0.541176 0.086275
0.835294 0.572549 0.019608
0.941177 0.592157 0.078431
0.992157 0.588235 0.000000
1.000000 0.588235 0.000000
0.000000 0.533333 0.372549
0.000000 0.513726 0.333333
0.050980 0.552941 0.290196
0.329412 0.631373 0.133333
0.658824 0.721569 0.192157
0.890196 0.780392 0.196078
0.996078 0.792157 0.149020
1.000000 0.800000 0.023529
1.000000 0.800000 0.035294
0.000000 0.556863 0.360784
0.000000 0.545098 0.337255
0.000000 0.588235 0.305882
0.258824 0.678431 0.180392
0.643137 0.792157 0.105882
0.901961 0.866667 0.200000
1.000000 0.890196 0.176471
1.000000 0.898039 0.105882
1.000000 0.898039 0.015686
0.000000 0.560784 0.349020
0.000000 0.549020 0.333333
0.000000 0.588235 0.309804
0.188235 0.674510 0.180392
0.603922 0.796079 0.105882
0.890196 0.882353 0.117647
1.000000 0.909804 0.082353
1.000000 0.921569 0.015686
1.000000 0.925490 0.007843
0.000000 0.552941 0.337255
0.000000 0.545098 0.325490
0.000000 0.576471 0.309804
0.117647 0.662745 0.188235
0.556863 0.784314 0.129412
0.866667 0.878431 0.078431
1.000000 0.913726 0.011765
1.000000 0.921569 0.007843
1.000000 0.929412 0.007843
0.000000 0.019608 0.200000
0.000000 0.027451 0.219608
0.094118 0.000000 0.250980
0.258824 0.058824 0.270588
0.435294 0.066667 0.298039
0.580392 0.070588 0.317647
0.674510 0.000000 0.333333
0.713726 0.000000 0.333333
0.733333 0.000000 0.333333
0.000000 0.047059 0.223529
0.000000 0.047059 0.219608
0.086275 0.043137 0.266667
0.274510 0.078431 0.282353
0.458824 0.043137 0.305882
0.611765 0.125490 0.329412
0.698039 0.078431 0.333333
0.745098 0.015686 0.341176
0.764706 0.000000 0.337255
0.000000 0.109804 0.278431
0.000000 0.121569 0.282353
0.113725 0.152941 0.286275
0.305882 0.160784 0.321569
0.505882 0.160784 0.329412
0.670588 0.121569 0.325490
0.760784 0.074510 0.321569
0.811765 0.066667 0.317647
0.827451 0.066667 0.317647
0.000000 0.235294 0.411765
0.000000 0.235294 0.388235
0.121569 0.278431 0.372549
0.341176 0.317647 0.352941
0.568627 0.352941 0.360784
0.749020 0.364706 0.349020
0.850980 0.368627 0.337255
0.901961 0.368627 0.329412
0.917647 0.368627 0.329412
0.027451 0.454902 0.525490
0.058824 0.439216 0.482353
0.235294 0.482353 0.454902
0.321569 0.517647 0.384314
0.619608 0.568627 0.380392
0.827451 0.600000 0.356863
0.941177 0.615686 0.349020
0.992157 0.619608 0.337255
1.000000 0.623529 0.333333
0.149020 0.600000 0.576471
0.141176 0.576471 0.533333
0.188235 0.615686 0.498039
0.203922 0.678431 0.403922
0.623529 0.764706 0.380392
0.866667 0.815686 0.372549
0.988235 0.835294 0.349020
1.000000 0.843137 0.329412
1.000000 0.847059 0.321569
0.058824 0.647059 0.580392
0.035294 0.631373 0.541176
0.027451 0.662745 0.501961
0.074510 0.733333 0.407843
0.584314 0.839216 0.364706
0.874510 0.909804 0.360784
1.000000 0.937255 0.349020
1.000000 0.945098 0.333333
1.000000 0.949020 0.313726
0.003922 0.650980 0.568627
0.003922 0.635294 0.533333
0.003922 0.662745 0.494118
0.035294 0.729412 0.407843
0.525490 0.843137 0.345098
0.854902 0.925490 0.298039
1.000000 0.960784 0.313726
1.000000 0.976471 0.309804
1.000000 0.980392 0.313726
0.003922 0.643137 0.549020
0.003922 0.631373 0.513726
0.003922 0.647059 0.482353
0.015686 0.717647 0.407843
0.458824 0.827451 0.329412
0.827451 0.921569 0.250980
1.000000 0.964706 0.270588
1.000000 0.980392 0.258824
1.000000 0.988235 0.286275
0.000000 0.035294 0.286275
0.000000 0.043137 0.305882
0.062745 0.066667 0.325490
0.243137 0.078431 0.380392
0.419608 0.094118 0.423529
0.568627 0.062745 0.462745
0.670588 0.000000 0.486275
0.709804 0.000000 0.490196
0.729412 0.000000 0.494118
0.000000 0.062745 0.309804
0.000000 0.070588 0.313726
0.043137 0.086275 0.356863
0.254902 0.121569 0.403922
0.443137 0.145098 0.450980
0.600000 0.141176 0.486275
0.694118 0.109804 0.501961
0.741176 0.015686 0.509804
0.764706 0.000000 0.513726
0.000000 0.129412 0.368627
0.000000 0.129412 0.392157
0.082353 0.133333 0.419608
0.266667 0.172549 0.478431
0.498039 0.200000 0.505882
0.666667 0.200000 0.529412
0.764706 0.160784 0.537255
0.811765 0.078431 0.541176
0.835294 0.023529 0.541176
0.000000 0.215686 0.498039
0.000000 0.227451 0.494118
0.074510 0.258824 0.505882
0.294118 0.321569 0.541176
0.560784 0.341176 0.572549
0.749020 0.352941 0.584314
0.850980 0.356863 0.584314
0.905882 0.356863 0.584314
0.925490 0.352941 0.584314
0.000000 0.403922 0.650980
0.000000 0.388235 0.631373
0.125490 0.447059 0.639216
0.372549 0.525490 0.631373
0.607843 0.572549 0.615686
0.823529 0.611765 0.631373
0.933333 0.623529 0.631373
0.988235 0.631373 0.631373
1.000000 0.635294 0.631373
0.156863 0.654902 0.752941
0.121569 0.623529 0.713726
0.270588 0.670588 0.705882
0.384314 0.741176 0.701961
0.576471 0.792157 0.643137
0.858824 0.839216 0.658824
0.980392 0.862745 0.654902
1.000000 0.870588 0.654902
1.000000 0.874510 0.654902
0.039216 0.713726 0.760784
0.078431 0.694118 0.725490
0.188235 0.721569 0.709804
0.258824 0.800000 0.701961
0.513726 0.874510 0.647059
0.854902 0.945098 0.647059
0.992157 0.968628 0.662745
1.000000 0.980392 0.666667
1.000000 0.984314 0.666667
0.003922 0.721569 0.749020
0.011765 0.705882 0.713726
0.078431 0.721569 0.694118
0.070588 0.796079 0.682353
0.431373 0.882353 0.635294
0.823529 0.964706 0.627451
0.992157 0.996078 0.639216
1.000000 1.000000 0.658824
1.000000 1.000000 0.666667
0.003922 0.713726 0.725490
0.007843 0.698039 0.698039
0.035294 0.705882 0.674510
0.011765 0.780392 0.670588
0.337255 0.866667 0.627451
0.784314 0.960784 0.611765
0.980392 1.000000 0.615686
1.000000 1.000000 0.631373
1.000000 1.000000 0.654902
0.000000 0.050980 0.349020
0.000000 0.050980 0.368627
0.015686 0.058824 0.396078
0.223529 0.094118 0.454902
0.407843 0.086275 0.513726
0.549020 0.086275 0.556863
0.647059 0.031373 0.584314
0.694118 0.035294 0.596078
0.721569 0.000000 0.603922
0.000000 0.074510 0.372549
0.000000 0.082353 0.392157
0.039216 0.098039 0.431373
0.239216 0.113725 0.494118
0.431373 0.133333 0.549020
0.580392 0.152941 0.588235
0.678431 0.137255 0.611765
0.725490 0.098039 0.627451
0.756863 0.000000 0.639216
0.000000 0.137255 0.443137
0.000000 0.149020 0.474510
0.062745 0.168627 0.517647
0.254902 0.164706 0.588235
0.486275 0.145098 0.643137
0.654902 0.227451 0.662745
0.752941 0.207843 0.682353
0.803922 0.152941 0.690196
0.835294 0.000000 0.698039
0.000000 0.219608 0.552941
0.000000 0.243137 0.588235
0.027451 0.262745 0.639216
0.298039 0.290196 0.678431
0.545098 0.317647 0.737255
0.745098 0.329412 0.752941
0.850980 0.333333 0.756863
0.901961 0.329412 0.764706
0.921569 0.321569 0.764706
0.000000 0.356863 0.705882
0.000000 0.384314 0.717647
0.137255 0.443137 0.745098
0.392157 0.501961 0.760784
0.600000 0.580392 0.796079
0.811765 0.607843 0.819608
0.929412 0.619608 0.827451
0.984314 0.627451 0.831373
1.000000 0.631373 0.831373
0.019608 0.584314 0.827451
0.043137 0.564706 0.815686
0.282353 0.650980 0.854902
0.513726 0.725490 0.866667
0.694118 0.796079 0.874510
0.854902 0.839216 0.858824
0.976471 0.866667 0.866667
1.000000 0.878431 0.870588
1.000000 0.882353 0.870588
0.168627 0.807843 0.886275
0.168627 0.788235 0.866667
0.207843 0.800000 0.862745
0.305882 0.850980 0.878431
0.501961 0.901961 0.878431
0.827451 0.956863 0.874510
0.988235 0.980392 0.882353
1.000000 0.992157 0.886275
1.000000 0.996078 0.886275
0.007843 0.780392 0.847059
0.007843 0.760784 0.827451
0.007843 0.772549 0.827451
0.074510 0.847059 0.858824
0.388235 0.905882 0.862745
0.784314 0.976471 0.866667
0.984314 1.000000 0.870588
1.000000 1.000000 0.882353
1.000000 1.000000 0.890196
0.007843 0.764706 0.831373
0.007843 0.752941 0.819608
0.007843 0.752941 0.803922
0.027451 0.827451 0.839216
0.305882 0.898039 0.847059
0.733333 0.972549 0.858824
0.968628 1.000000 0.858824
1.000000 1.000000 0.866667
1.000000 1.000000 0.882353
0.000000 0.054902 0.384314
0.000000 0.050980 0.403922
0.015686 0.054902 0.439216
0.219608 0.023529 0.505882
0.415686 0.000000 0.584314
0.552941 0.011765 0.607843
0.639216 0.066667 0.631373
0.690196 0.007843 0.650980
0.713726 0.000000 0.658824
0.000000 0.078431 0.407843
0.000000 0.078431 0.435294
0.027451 0.090196 0.478431
0.231373 0.035294 0.552941
0.439216 0.000000 0.627451
0.584314 0.066667 0.647059
0.670588 0.137255 0.666667
0.721569 0.031373 0.690196
0.749020 0.000000 0.698039
0.000000 0.133333 0.482353
0.000000 0.145098 0.529412
0.011765 0.152941 0.588235
0.235294 0.109804 0.666667
0.486275 0.031373 0.721569
0.654902 0.160784 0.737255
0.749020 0.219608 0.749020
0.800000 0.156863 0.760784
0.827451 0.007843 0.772549
0.000000 0.219608 0.596078
0.000000 0.250980 0.654902
0.015686 0.270588 0.725490
0.258824 0.286275 0.780392
0.537255 0.298039 0.823529
0.745098 0.309804 0.843137
0.850980 0.309804 0.850980
0.901961 0.305882 0.854902
0.921569 0.294118 0.854902
0.000000 0.349020 0.729412
0.000000 0.396078 0.772549
0.101961 0.458824 0.819608
0.356863 0.517647 0.858824
0.603922 0.572549 0.894118
0.807843 0.603922 0.917647
0.925490 0.615686 0.925490
0.984314 0.623529 0.929412
1.000000 0.623529 0.933333
0.007843 0.541176 0.847059
0.058824 0.556863 0.858824
0.325490 0.650980 0.901961
0.556863 0.729412 0.925490
0.725490 0.792157 0.945098
0.862745 0.843137 0.960784
0.972549 0.870588 0.972549
1.000000 0.878431 0.976471
1.000000 0.882353 0.980392
0.070588 0.768628 0.913726
0.050980 0.752941 0.901961
0.333333 0.823529 0.933333
0.635294 0.886275 0.964706
0.803922 0.929412 0.984314
0.913726 0.960784 0.992157
0.992157 0.980392 0.992157
1.000000 0.996078 0.996078
1.000000 0.996078 0.996078
0.219608 0.898039 0.945098
0.188235 0.890196 0.937255
0.184314 0.882353 0.925490
0.313726 0.913726 0.941177
0.549020 0.949020 0.956863
0.800000 0.988235 0.984314
0.972549 1.000000 0.992157
1.000000 1.000000 0.996078
1.000000 1.000000 1.000000
0.192157 0.898039 0.941177
0.129412 0.882353 0.929412
0.035294 0.839216 0.894118
0.043137 0.874510 0.913726
0.345098 0.929412 0.937255
0.733333 0.984314 0.972549
0.952941 1.000000 0.992157
1.000000 1.000000 0.992157
1.000000 1.000000 1.000000
0.000000 0.054902 0.400000
0.000000 0.050980 0.419608
0.023529 0.054902 0.454902
0.227451 0.007843 0.529412
0.419608 0.000000 0.603922
0.556863 0.000000 0.631373
0.635294 0.043137 0.650980
0.682353 0.039216 0.662745
0.705882 0.000000 0.678431
0.000000 0.074510 0.419608
0.000000 0.070588 0.450980
0.035294 0.082353 0.494118
0.239216 0.007843 0.576471
0.443137 0.000000 0.650980
0.584314 0.019608 0.670588
0.670588 0.101961 0.690196
0.717647 0.070588 0.701961
0.741176 0.000000 0.713726
0.000000 0.133333 0.494118
0.000000 0.137255 0.549020
0.000000 0.125490 0.615686
0.239216 0.074510 0.694118
0.498039 0.003922 0.749020
0.662745 0.074510 0.760784
0.752941 0.133333 0.780392
0.800000 0.133333 0.784314
0.823529 0.027451 0.792157
0.000000 0.215686 0.607843
0.000000 0.239216 0.686275
0.027451 0.258824 0.760784
0.270588 0.282353 0.815686
0.545098 0.282353 0.858824
0.745098 0.290196 0.870588
0.850980 0.298039 0.878431
0.901961 0.294118 0.886275
0.921569 0.286275 0.890196
0.000000 0.333333 0.729412
0.000000 0.396078 0.792157
0.094118 0.462745 0.850980
0.364706 0.517647 0.894118
0.619608 0.564706 0.929412
0.815686 0.596078 0.952941
0.925490 0.611765 0.960784
0.984314 0.619608 0.960784
1.000000 0.623529 0.964706
0.007843 0.517647 0.839216
0.058824 0.564706 0.866667
0.298039 0.662745 0.913726
0.552941 0.737255 0.952941
0.729412 0.796079 0.980392
0.866667 0.843137 0.996078
0.972549 0.866667 1.000000
1.000000 0.878431 1.000000
1.000000 0.882353 1.000000
0.062745 0.733333 0.905882
0.109804 0.737255 0.909804
0.537255 0.827451 0.964706
0.745098 0.890196 0.992157
0.854902 0.933333 1.000000
0.933333 0.964706 1.000000
1.000000 0.984314 1.000000
1.000000 0.996078 1.000000
1.000000 1.000000 1.000000
0.250980 0.890196 0.941177
0.258824 0.886275 0.937255
0.443137 0.913726 0.956863
0.721569 0.960784 0.996078
0.878431 0.992157 1.000000
0.964706 1.000000 1.000000
1.000000 1.000000 1.000000
1.000000 1.000000 1.000000
1.000000 1.000000 1.000000
0.211765 0.898039 0.945098
0.211765 0.898039 0.945098
0.215686 0.898039 0.945098
0.592157 0.952941 0.980392
0.815686 0.996078 1.000000
0.901961 1.000000 1.000000
0.968628 1.000000 1.000000
1.000000 1.000000 1.000000
1.000000 1.000000 1.000000
0.000000 0.054902 0.403922
0.000000 0.047059 0.423529
0.039216 0.054902 0.462745
0.235294 0.003922 0.541176
0.423529 0.000000 0.611765
0.560784 0.000000 0.643137
0.639216 0.011765 0.662745
0.682353 0.019608 0.674510
0.705882 0.000000 0.682353
0.000000 0.074510 0.419608
0.000000 0.070588 0.454902
0.043137 0.082353 0.501961
0.250980 0.003922 0.584314
0.450980 0.000000 0.658824
0.592157 0.000000 0.686275
0.674510 0.066667 0.698039
0.717647 0.043137 0.713726
0.745098 0.000000 0.721569
0.000000 0.129412 0.494118
0.000000 0.133333 0.549020
0.003922 0.113725 0.623529
0.258824 0.047059 0.701961
0.505882 0.000000 0.760784
0.666667 0.058824 0.776471
0.752941 0.125490 0.788235
0.800000 0.105882 0.792157
0.827451 0.000000 0.807843
0.000000 0.215686 0.607843
0.000000 0.235294 0.686275
0.031373 0.254902 0.764706
0.294118 0.270588 0.823529
0.564706 0.262745 0.866667
0.752941 0.278431 0.882353
0.850980 0.290196 0.894118
0.901961 0.290196 0.898039
0.921569 0.278431 0.901961
0.000000 0.329412 0.725490
0.000000 0.392157 0.792157
0.101961 0.458824 0.850980
0.376471 0.509804 0.898039
0.635294 0.556863 0.941177
0.819608 0.588235 0.964706
0.929412 0.607843 0.968628
0.984314 0.619608 0.972549
1.000000 0.619608 0.976471
0.003922 0.501961 0.835294
0.058824 0.564706 0.866667
0.301961 0.658824 0.913726
0.556863 0.733333 0.952941
0.737255 0.792157 0.988235
0.874510 0.835294 1.000000
0.976471 0.862745 1.000000
1.000000 0.874510 1.000000
1.000000 0.882353 1.000000
0.062745 0.709804 0.901961
0.176471 0.733333 0.917647
0.576471 0.823529 0.968628
0.749020 0.886275 0.992157
0.850980 0.933333 1.000000
0.933333 0.960784 1.000000
1.000000 0.984314 1.000000
1.000000 0.996078 1.000000
1.000000 1.000000 1.000000
0.254902 0.878431 0.937255
0.235294 0.870588 0.933333
0.505882 0.921569 0.968628
0.764706 0.964706 1.000000
0.909804 0.992157 1.000000
0.988235 1.000000 1.000000
1.000000 1.000000 1.000000
1.000000 1.000000 1.000000
1.000000 1.000000 1.000000
0.211765 0.898039 0.945098
0.211765 0.898039 0.945098
0.333333 0.917647 0.952941
0.682353 0.968628 0.992157
0.862745 1.000000 1.000000
0.968628 1.000000 1.000000
1.000000 1.000000 1.000000
1.000000 1.000000 1.000000
1.000000 1.000000 1.000000
